X:905
T:Rory of the hills
R:March
B:O'Neill's 1810
S:O'Neill's 1810
Z:Transcription:Bob Safranek, chords:Mike Long
M:6/8
L:1/8
K:D
{AB}"D"A2F {AB}A2D|{AB}A2F {AB}A2D|\
{B=c}"G"B2G {AB}"D"A2E|{GA}"C"GzF E2{FE}D|
{AB}"D"A2F {AB}A2D|{AB}A2F {AB}A2D|\
{B=c}"G"B2d "D"AdG|"C"FdF E2{FE}D|
{FG}"D"F2D {GA}"G"G2E|\
"D"A3 AGF|"C"E/=c3/2G E2C|\
G/=c3/2G ECE|"D"D>ED D>ED|D>ED D>ED|]
{B=c}"G"B2G B<dG|{B=c}B2G B<dG|{AB}"D"A2d {AB}A2F|{AB}A2d {AB}A2F|\
{B=c}"G"B2B "D"A<dA|"C"G/=c3/2G E2C|
{FG}"D"F2D {GA}"G"G2E|"D"A3 AGF|\
"C"E/=c3/2G ECE|G/=c3/2G ECE|"D"D>ED D>ED|D>ED D>ED|]
